!!!!SEGMENT: pl-kc--40102-iii-1-saf--001-020_zielenski-mikolaj--offertoria-totius-anni-in-festo-inuentionis-s-crucis-dextera-domini.krn
!!!cenid: 16xx:1498
!!!COM: Zieleński, Mikołaj
!!!COM-rismid: pe30013481
!!!CDT:
!!!CNT: Polish
!!!GTL: Offertoria totius anni
!!!OTL: In festo Inuentionis S. Crucis/Dextera Domini
!!!OMV: 020
!!!PDT: 1611
!!!AGN:
!!!SMS-siglum: PL-Kc
!!!SMS-shelfmark: 40102 III/1 Saf.
!!!SMS-shelfwork: 001-020 G
!!!SMS-variant:
!!!SMS-altvar:
!!!NIFC-rismid: 990069886
!!!URL-scan: https://cyfrowe.mnk.pl/dlibra/publication/24235/edition/23926/content?ref=desc
!!!ONB-nifc: UWAGA: str. 19-20. Uwaga: W xml metrum 2/1 do źródłowego C| i odpowiednio 3/1 do 3/2
!!!key:
**kern	**kern	**kern	**kern
*group1	*group1	*group1	*group1
*part4	*part3	*part2	*part1
*staff4	*staff3	*staff2	*staff1
*I""Organo	*I""Organo	*I""Organo	*I""Organo
*I''org	*I''org	*I''org	*I''org
*Iorgan	*Iorgan	*Iorgan	*Iorgan
*ICklav	*ICklav	*ICklav	*ICklav
*clefF4	*clefC3	*clefC3	*clefC1
*k[b-]	*k[b-]	*k[b-]	*k[b-]
*g:	*g:	*g:	*g:
*M2/1	*M2/1	*M2/1	*M2/1
*met(c|)	*met(c|)	*met(c|)	*met(c|)
=1	=1	=1	=1
!	!	!LO:TX:a:t=Dextera Domini.	!LO:TX:a:t=In feſto Inuentionis S. Crucis. A 7.
00r	00r	2.d\	2.a\
.	.	4d\	4a\
.	.	2d\	2a\
.	.	1B-	1dd
=2-	=2-	=2-	=2-
.	.	.	.
.	.	2A/	2cc\
.	.	2G/	2b-\
.	.	[<2e-X\	[y2b-\
=3	=3	=3	=3
!	!	!	!LO:N:xstem:cue
00r	00r	2e-\]	4b-\]
.	.	.	4g/
.	.	2c/	2ee\
.	.	2.d\	1dd
.	.	4eny\	.
=4-	=4-	=4-	=4-
.	.	2f\	2.cc\
.	.	2F/	.
.	.	.	4cc\
.	.	2B-/	2b-\
.	.	[2B-/	[<2dd\
=5	=5	=5	=5
0r	0r	2B-/]	2dd\]
.	.	2F/	2cc\
.	.	2.G/	2.b-\
.	.	4G/	4b-\
=6-	=6-	=6-	=6-
2.D/	2.d\	1d	1a
4D/	4d\	.	.
2D/	2d\	1r	1r
2BB-/	2d\	.	.
=7	=7	=7	=7
2BB-/	2d\	00r	00r
2AA/	2c/	.	.
2GG/	2B-/	.	.
1E	2.B-/	.	.
=8-	=8-	=8-	=8-
.	.	.	.
.	4G/	.	.
2C/	2e\	.	.
2.D/	1d	.	.
4E\	.	.	.
=9	=9	=9	=9
2F\	2.c/	00r	00r
2FF/	.	.	.
.	4c/	.	.
2BB-/	2d\	.	.
1BB-	2.f\	.	.
=10-	=10-	=10-	=10-
.	.	.	.
.	4d\	.	.
2FF/	4a\	.	.
.	2a\	.	.
2C/	.	.	.
!	!LO:SIC:v:s=8g\	!	!
.	8g#\	.	.
.	8f\	.	.
2GG/	[y2gny\	.	.
=11	=11	=11	=11
!	!LO:N:xstem:cue	!	!
2.D/	4g\]	1r	1r
.	8f#X\	.	.
.	8e\	.	.
.	2f#\	.	.
4D/	.	.	.
1GG	1g	2r	2r
.	.	2.G/	2.dd\
=12-	=12-	=12-	=12-
0r	0r	.	.
.	.	4G/	4dd\
.	.	2g\	2dd\
.	.	2e-X\	2ee-X\
.	.	2f\	2cc\
=13	=13	=13	=13
0r	0r	4B-/	4dd\
.	.	2B-/	2dd\
.	.	4F/	4cc\
.	.	2G/	2b-\
.	.	2c/	4.cc\
.	.	.	8b-\
=14-	=14-	=14-	=14-
2r	2r	2d\	2a\
2.D/	2.f\	2.d\	2.ff\
4D/	4f\	4d\	4ff\
2D/	4d\	2A/	2ff\
.	[<4d\	.	.
=15	=15	=15	=15
2AA/	4d\]	2e\	2ee\
.	8c#X/	.	.
!	!LO:SIC:v:s=8Bn/	!	!
.	8B-/	.	.
2AA/	2c#/	2e\	2ee\
2D/	2d\	2f\	2dd\
1BB-	1d	2.f\	1ff
=16-	=16-	=16-	=16-
.	.	.	.
.	.	4d\	.
2C/	2cny/	2g\	2ee\
2GG/	2g\	2g\	2dd\
2GG/	2g\	2g\	2dd\
=17	=17	=17	=17
2C/	2c/	2g\	2ee\
1F	1c	1f	2.cc\
.	.	.	4a\
2D/	2d\	2f\	4dd\
.	.	.	2dd\
=18-	=18-	=18-	=18-
2AA/	2e\	2e\	.
.	.	.	8cc#X\
!	!	!	!LO:SIC:v:s=8bn\
.	.	.	8b-\
2AA/	2A/	2e\	2cc#\
1DD	1A	2f\	2dd\
.	.	[<2d\	[<2ff\
=19	=19	=19	=19
00r	00r	4d\]	4ff\]
.	.	4d\	4ff\
.	.	2c/	2ee\
.	.	2d\	2dd\
.	.	2e\	4cc\
.	.	.	4b-\
=20-	=20-	=20-	=20-
.	.	2f\	2a\
.	.	1F	1cc
.	.	2G/	2b-\
=21	=21	=21	=21
1r	1r	2A/	2.a\
.	.	4G/	.
.	.	4F/	4a\
2r	2r	1c	1g
2.C/	2.e\	.	.
=22-	=22-	=22-	=22-
.	.	0r	0r
4C/	4e\	.	.
!LO:N:acc=#	!	!	!
2BBn/	2d\	.	.
2C/	2e\	.	.
2D/	2f#X\	.	.
*custos:GG	*custos:g	*custos:A	*custos:ee
!!LO:LB:g=original
=23	=23	=23	=23
2GG/	2g\	0r	0r
1D	4d\	.	.
.	4e\	.	.
.	4f\	.	.
.	4d\	.	.
2C/	2e\	.	.
=24-	=24-	=24-	=24-
2.BB-/	2f\	1r	1r
.	2g\	.	.
4BB-/	.	.	.
1AA	1a	2r	2r
.	.	4r	2ee\
.	.	4A/	.
=25	=25	=25	=25
1r	1r	4.d\	4.ff\
.	.	8c/	8ee\
.	.	4B-/	4dd\
.	.	4G/	4dd\
4r	4r	2A/	2cc#X\
4AA/	4e\	.	.
4.D/	4.f\	2D/	2dd\
8C/	8e\	.	.
=26-	=26-	=26-	=26-
4BB-/	4d\	2r	2r
4GG/	4d\	.	.
2AA/	2c#X/	4r	4r
.	.	4A/	4ee\
2DD/	2d\	4.d\	4.ff\
!	!	!	!LO:N:vis=4
.	.	8c/	8ee\
2r	2r	4B-/	4dd\
.	.	4G/	8ccny\
.	.	.	8b-\
=27	=27	=27	=27
1r	1r	2d\	4a\
.	.	.	4b-\
.	.	2D/	2a\
2r	2r	2G/	2g/
2.BB-/	2.f\	2.B-/	2.dd\
=28-	=28-	=28-	=28-
.	.	.	.
4BB-/	4f\	4B-/	4dd\
2AA/	2f\	2c/	2cc\
2BB-/	2d\	2d\	2b-\
2C/	2G/	4c/	2g/
.	.	4B-/	.
=29	=29	=29	=29
2FF/	2c/	2A/	2a\
4FF/	1c	2.f\	2.cc\
4GG/	.	.	.
4AA/	.	.	.
4BB-/	.	4F/	8b-\
.	.	.	8a\
2C/	2e\	2c/	4g/
.	.	.	4a\
=30-	=30-	=30-	=30-
2.GG/	2d\	2B-/	2b-\
.	2d\	4A/	2b-\
4GG/	.	4G/	.
1DD	1d	2A/	2a\
.	.	4r	4r
.	.	4d\	4a\
=31	=31	=31	=31
1r	1r	4.B-/	4.dd\
.	.	8A/	8cc\
.	.	4G/	4b-\
.	.	4G/	4b-\
4r	4r	2d\	2a\
4D/	4d\	.	.
4.GG/	4.d\	2d\	2g/
8AA/	8c/	.	.
=32-	=32-	=32-	=32-
4BB-/	4B-/	2r	2r
4GG/	4B-/	.	.
2D/	2A/	4r	4r
.	.	4d\	4dd\
2GG/	2G/	4.B-/	4.dd\
.	.	8A/	8cc\
2r	2r	4G/	4b-\
.	.	4G/	4b-\
=33	=33	=33	=33
2r	2r	2c/	2g/
4r	4r	2F/	2a\
4FF/	4f\	.	.
4.F\	4.a\	2r	2r
8E\	8g\	.	.
2D/	2f\	4r	4r
.	.	4d\	4a\
=34-	=34-	=34-	=34-
2r	2r	4.B-/	4.dd\
.	.	8A/	8cc\
4r	4r	2G/	2b-\
4GG/	4g\	.	.
4.E-X\	4.g\	4r	4r
.	.	4A/	4b-\
8D/	8f\	.	.
2C/	2e-X\	4c/	4.ee-X\
.	.	8d\	.
!	!	!LO:SIC:v:s=8e-\	!
.	.	8e\	8dd\
=35	=35	=35	=35
4r	4r	2f\	2cc\
4FF/	4a\	.	.
4.F\	4.a\	4r	4r
.	.	4c/	4cc\
8E\	8g\	.	.
4.D/	4f\	4.d\	4.ff\
.	4d\	.	.
8C/	.	8e\	8ee\
4BB-/	4d\	4f\	4dd\
4BB-/	4g\	[4B-/	4dd\
=36-	=36-	=36-	=36-
1C	4c/	4B-/]	1cc
.	2f\	4A/	.
.	.	2G/	.
.	4e\	.	.
1FF	1f	1c	1cc
=37	=37	=37	=37
*M3/2	*M3/2	*M3/2	*M3/2
00.r	00.r	1f	1cc
.	.	2d\	2dd\
.	.	1e-X	1b-
.	.	2c/	2cc\
=38-	=38-	=38-	=38-
.	.	1d	1a
.	.	2B-/	2b-\
.	.	1c	1g
.	.	2A/	2a\
=39	=39	=39	=39
0.r	0.r	2.B-/	2.f/
.	.	4B-/	4f/
.	.	2G/	2g/
.	.	1d	1a
.	.	2G/	2b-\
=40-	=40-	=40-	=40-
2r	2r	1d	1a
2D/	2f#X\	.	.
!LO:N:acc=#	!	!	!
2BBn/	2g\	2r	2r
1C	1e	1.r	1.r
2AA/	2f#\	.	.
=41	=41	=41	=41
1BB-	1d	00.r	00.r
2GG/	2e\	.	.
1D	1f#X	.	.
!LO:N:acc=#	!	!	!
2BBn/	2g\	.	.
=42-	=42-	=42-	=42-
2.C/	2.e\	.	.
4C/	4e\	.	.
2AA/	1a	.	.
1D	.	.	.
.	2g\	.	.
2DD/	2f#X\	.	.
*custos:GG	*custos:g	*custos:g	*custos:gg
!!LO:PB:g=original
=43	=43	=43	=43
1.GG	1.g	1.r	1.r
1C	1G	1g	1ee
2AA/	2c/	2a\	2ff\
=44-	=44-	=44-	=44-
1BB-	1F	1f	1dd
2GG/	2B-/	2g\	2ee\
1AA	2r	1e	1cc#X
.	2A/	.	.
2DD/	2d\	2f\	2dd\
=45	=45	=45	=45
!	!	!	!LO:N:acc=#
1GG	1G	1d	1bn
.	.	.	.
2EE/	2c/	2e\	2cc\
2.FF/	2.F/	2.c/	2.a\
4FF/	4F/	4c/	4a\
!	!	!	!LO:N:acc=#
2DD/	2f\	2d\	2bn\
=46-	=46-	=46-	=46-
*M2/1	*M2/1	*M2/1	*M2/1
*met(c|)	*met(c|)	*met(c|)	*met(c|)
!	!	!	!LO:N:vis=4
1.AA	4e\	1.A	2cc#X\
.	8d\	.	.
.	8e\	.	.
.	4f\	.	2.dd\
.	8g\	.	.
.	8f\	.	.
.	2.e\	.	.
.	.	.	8cc#X\
!	!	!	!LO:SIC:v:s=8bn\
.	.	.	8b-y\
2AA/	.	2A/	2cc#\
.	4e\	.	.
=47	=47	=47	=47
1DD	1f#X	1d	1dd
1r	1r	2r	2r
.	.	2.d\	2.ff\
=48-	=48-	=48-	=48-
0r	0r	.	.
.	.	4d\	4ff\
.	.	2c/	2ee\
.	.	2d\	2dd\
.	.	2e\	4cc\
.	.	.	4b-\
=49	=49	=49	=49
0r	0r	2f\	2a\
.	.	1F	1cc
.	.	2G/	2b-\
=50-	=50-	=50-	=50-
1r	1r	2A/	2.a\
.	.	4G/	.
.	.	4F/	4a\
2r	2r	1c	1g
[y2C/	[y2e\	.	.
=51	=51	=51	=51
!LO:N:xstem:cue	!LO:N:xstem:cue	!	!
4C/]	4e\]	00r	00r
4C/	4e\	.	.
!LO:N:acc=#	!	!	!
2BBn/	2d\	.	.
2C/	2e\	.	.
2D/	2f#X\	.	.
=52-	=52-	=52-	=52-
2GG/	2g\	.	.
1D	4d\	.	.
.	4e\	.	.
.	4fny\	.	.
.	4d\	.	.
2C/	2e\	.	.
=53	=53	=53	=53
2.BB-/	2f\	1r	1r
.	2g\	.	.
4BB-/	.	.	.
1AA	1a	2r	2r
.	.	4r	2ee\
.	.	4A/	.
=54-	=54-	=54-	=54-
1r	1r	4.d\	4.ff\
.	.	8c/	8ee\
.	.	4B-/	4dd\
.	.	4G/	4dd\
4r	4r	2A/	2cc#X\
4AA/	4e\	.	.
4.D/	4.f\	2D/	2dd\
8C/	8e\	.	.
=55	=55	=55	=55
4BB-/	4d\	2r	2r
4GG/	4d\	.	.
2AA/	2c#X/	4r	4r
.	.	4A/	4ee\
2DD/	2d\	4.d\	4.ff\
.	.	8c/	8ee\
2r	2r	4B-/	4dd\
.	.	4G/	8cc\
.	.	.	8b-\
=56-	=56-	=56-	=56-
1r	1r	2d\	4a\
.	.	.	4b-\
.	.	2D/	2a\
2r	2r	2G/	2g/
[y2BB-/	[y2f\	[y2B-/	[y2dd\
=57	=57	=57	=57
!LO:N:xstem:cue	!LO:N:xstem:cue	!LO:N:xstem:cue	!LO:N:xstem:cue
4BB-/]	4f\]	4B-/]	4dd\]
4BB-/	4f\	4B-/	4dd\
2AA/	2f\	2c/	2cc\
2BB-/	2d\	2d\	2b-\
2C/	2G/	4c/	2g/
.	.	4B-/	.
=58-	=58-	=58-	=58-
2FF/	2c/	2A/	2a\
4FF/	1c	2.f\	2.cc\
4GG/	.	.	.
4AA/	.	.	.
4BB-/	.	4F/	8b-\
.	.	.	8a\
2C/	2e\	2c/	4g/
.	.	.	4a\
=59	=59	=59	=59
2.GG/	2d\	2B-/	2b-\
.	2d\	4A/	2b-\
4GG/	.	4G/	.
1DD	1d	2A/	2a\
.	.	4r	4r
.	.	4d\	4a\
=60-	=60-	=60-	=60-
1r	1r	4.B-/	4.dd\
.	.	8A/	8cc\
.	.	4G/	4b-\
.	.	4G/	4b-\
4r	4r	2d\	2a\
4D/	4d\	.	.
4.GG/	4.d\	2d\	2g/
8AA/	8c/	.	.
=61	=61	=61	=61
4BB-/	4B-/	2r	2r
4GG/	4B-/	.	.
2D/	2A/	4r	4r
.	.	4d\	4dd\
2GG/	2G/	4.B-/	4.dd\
.	.	8A/	8cc\
2r	2r	4G/	4b-\
.	.	4G/	4b-\
=62-	=62-	=62-	=62-
2r	2r	2c/	2g/
4r	4r	2F/	2a\
4FF/	4f\	.	.
4.F\	4.a\	2r	2r
8E\	8g\	.	.
2D/	2f\	4r	4r
.	.	4d\	4a\
*custos:GG	*custos:g	*custos:B	*custos:dd
!!LO:PB:g=original
=63	=63	=63	=63
2r	2r	4.B-/	4.dd\
.	.	8A/	8cc\
4r	4r	2G/	2b-\
4GG/	4g\	.	.
4.E-X\	4.g\	4r	4r
.	.	4G/	4b-\
8D/	8f\	.	.
2C/	2e-X\	4.c/	4.ee-X\
!	!	!LO:N:vis=8	!
.	.	16d\	8dd\
!	!	!LO:N:vis=8	!
.	.	16e\	.
=64-	=64-	=64-	=64-
4r	4r	2f\	2cc\
4FF/	4a\	.	.
4.F\	4.a\	4r	4r
.	.	4c/	4cc\
8Eny\	8g\	.	.
4.D/	4f\	4.d\	4.ff\
.	4d\	.	.
8C/	.	8e\	8eeny\
4BB-/	4d\	4f\	4dd\
4BB-/	4f\	[>4B-/	4dd\
=65	=65	=65	=65
1C	4c/	4B-/]	1cc
.	2f\	4A/	.
.	.	2G/	.
.	4e\	.	.
1FF	1f	1c	1cc
=66-	=66-	=66-	=66-
*M3/2	*M3/2	*M3/2	*M3/2
0.r	0.r	1f	1cc
.	.	2d\	2dd\
.	.	1e-X	1b-
.	.	2c/	2cc\
=67	=67	=67	=67
0.r	0.r	1d	1a
.	.	2B-/	2b-\
.	.	1c	1g
.	.	2A/	2a\
=68-	=68-	=68-	=68-
0.r	0.r	2.B-/	2.f/
.	.	4B-/	4f/
.	.	2G/	2g/
.	.	1d	1a
.	.	2G/	2b-\
=69	=69	=69	=69
2r	2r	1d	1a
2D/	2f#X\	.	.
!LO:N:acc=#	!	!	!
2BBn/	2g\	2r	2r
1C	1e	1.r	1.r
2AA/	2f#\	.	.
=70-	=70-	=70-	=70-
1BB-y	1d	0.r	0.r
2GG/	2e\	.	.
1D	1f#X	.	.
!LO:N:acc=#	!	!	!
2BBn/	2g\	.	.
=71	=71	=71	=71
2.C/	2.e\	0.r	0.r
4C/	4e\	.	.
2AA/	1a	.	.
1D	.	.	.
.	2g\	.	.
2DD/	2f#X\	.	.
=72-	=72-	=72-	=72-
1.GG	1.g	1.r	1.r
1C	1G	1g	1ee
2AA/	2A/	2a\	2ff\
=73	=73	=73	=73
1BB-	1F	1f	1dd
2GG/	2B-/	2g\	2ee\
1AA	2r	1e	1cc#X
.	2A/	.	.
2DD/	2d\	2f\	2dd\
=74-	=74-	=74-	=74-
!	!	!	!LO:N:acc=#
1GG	1G	1d	1bn
2EE/	2c/	2e\	2ccny\
2.FF/	2.F/	2.c/	2.a\
4FF/	4F/	4c/	4a\
!	!	!	!LO:N:acc=#
2DD/	2f\	2d\	2bn\
=75	=75	=75	=75
*M2/1	*M2/1	*M2/1	*M2/1
*met(c|)	*met(c|)	*met(c|)	*met(c|)
1.AA	4e\	1.A	2cc\
.	8d\	.	.
.	8e\	.	.
.	4f\	.	2.dd\
.	8g\	.	.
.	8f\	.	.
.	2.e\	.	.
.	.	.	8cc#X\
!	!	!	!LO:SIC:v:s=8bn\
.	.	.	8b-\
2AA/	.	2A/	2cc#\
.	4e\	.	.
=76-	=76-	=76-	=76-
2DD/	2f\	2.d\	2.dd\
2D/	4r	.	.
.	4d\	2f\	2dd\
2BB-/	2d\	.	.
.	.	2d\	2b-\
2GG/	2g\	.	.
!	!	!LO:N:acc=#	!
.	.	4Bn/	[4g/
=77	=77	=77	=77
2C/	4e\	2c/	4g/]
.	2e\	.	2cc\
2AA/	.	2c/	.
.	2c/	.	2a\
2FF/	.	2f\	.
.	4c/	.	2f/
1BB-	4F/	2d\	.
.	2f\	.	4d/
=78-	=78-	=78-	=78-
.	.	1.d	1b-
.	4B-/	.	.
4AA/	2d\	.	.
4GG/	.	.	.
2.D/	2A/	.	2a\
.	2A/	2d\	[y2dd\
4C/	.	.	.
=79	=79	=79	=79
*	*	*lig	*
!	!	!	!LO:N:xstem:cue
4BB-/	1.d	1g	4dd\]
4AA/	.	.	4cc\
2GG/	.	.	2b-\
2FF/	.	1d	2a\
2GG/	2G/	.	2.g/
*	*	*Xlig	*
=80-	=80-	=80-	=80-
1DD	1d	1d	.
.	.	.	8f#X/
.	.	.	8e/
.	.	.	2f#/
2.GG/	2.B-/	2g\	2g/
.	.	2g\	[y2dd\
4AA/	4c/	.	.
=81	=81	=81	=81
!	!	!	!LO:N:xstem:cue
2.BB-/	2d\	2g\	4dd\]
.	.	.	4cc\
.	2d\	2d\	1b-
4C/	.	.	.
2D/	1A	0d	.
2D/	.	.	1a
=82-	=82-	=82-	=82-
0GG	1.B-	.	.
.	.	.	4g/
.	.	.	4f#X/
.	.	2g\	4g/
.	.	.	4d/
!	!	!LO:TX:t=P:problem:brak początku ligatury	!
.	4G/	[<2g\	[y2dd\
.	4A/	.	.
*custos:GG	*custos:B	*custos:g	*custos:cc
!!LO:LB:g=original
=83	=83	=83	=83
!	!	!	!LO:N:xstem:cue
0GG	4B-/	2g\]	4dd\]
.	4c/	.	4cc\
.	2d\	2G/	4b-\
.	.	.	4a\
.	1G	1d	2b-\
.	.	.	2b-\
=84-	=84-	=84-	=84-
0DDl	0dl	0dl	0al
==	==	==	==
*-	*-	*-	*-
!!!system-decoration: *
!!!RDF**kern: > = above
!!!RDF**kern: < = below
!!!RDF**kern: l = terminal long
!!!AIN: 4 organ
!!!ENC: Filip Voros
!!!END: 2021-12-11
!!!ENC: Marta Lawrence
!!!END: 2021-12-21
